icons/solid/sparkles.svg

<svg width="24" height="24" viewBox="0 0 24 24" fill="none" xmlns="http://www.w3.org/2000/svg">
<path fill-rule="evenodd" clip-rule="evenodd" d="M6 3C6 2.44772 5.55228 2 5 2C4.44772 2 4 2.44772 4 3V4H3C2.44772 4 2 4.44772 2 5C2 5.55228 2.44772 6 3 6H4V7C4 7.55228 4.44772 8 5 8C5.55228 8 6 7.55228 6 7V6H7C7.55228 6 8 5.55228 8 5C8 4.44772 7.55228 4 7 4H6V3ZM13 2C13.5523 2 14 2.44772 14 3C14 6.34392 15.1476 8.29566 16.514 9.43081C17.9176 10.5968 19.6724 11 21 11C21.5523 11 22 11.4477 22 12C22 12.5523 21.5523 13 21 13C17.7403 13 16.0758 14.3243 15.1625 15.881C14.1987 17.5239 14 19.5564 14 21C14 21.5523 13.5523 22 13 22C12.4477 22 12 21.5523 12 21C12 17.6561 10.8524 15.7043 9.48598 14.5692C8.08242 13.4032 6.32757 13 5 13C4.44772 13 4 12.5523 4 12C4 11.4477 4.44772 11 5 11C8.25973 11 9.92422 9.67566 10.8375 8.11899C11.8013 6.47615 12 4.44356 12 3C12 2.44772 12.4477 2 13 2Z" fill="currentColor"/>
</svg>

<svg width="24" height="24" fill="none" xmlns="http://www.w3.org/2000/svg"><path fill-rule="evenodd" clip-rule="evenodd" d="M6 3a1 1 0 00-2 0v1H3a1 1 0 000 2h1v1a1 1 0 002 0V6h1a1 1 0 000-2H6V3zm7-1a1 1 0 011 1c0 3.344 1.148 5.296 2.514 6.43C17.918 10.598 19.672 11 21 11a1 1 0 110 2c-3.26 0-4.924 1.324-5.838 2.881C14.2 17.524 14 19.556 14 21a1 1 0 11-2 0c0-3.344-1.148-5.296-2.514-6.43C8.082 13.402 6.328 13 5 13a1 1 0 110-2c3.26 0 4.924-1.324 5.838-2.881C11.8 6.476 12 4.444 12 3a1 1 0 011-1z" fill="currentColor"/></svg>
